cartflows/admin-core/assets/images/plugins/spectra.svg

<svg width="40" height="40" viewBox="0 0 40 40" fill="none" xmlns="http://www.w3.org/2000/svg">
<path fill-rule="evenodd" clip-rule="evenodd" d="M20 40C31.0457 40 40 31.0457 40 20C40 8.9543 31.0457 0 20 0C8.9543 0 0 8.9543 0 20C0 31.0457 8.9543 40 20 40ZM18.0776 16.9317C17.5968 16.7696 17.5505 16.1024 18.0043 15.8744L23.9079 12.905C25.2584 12.2258 26.1106 10.8432 26.1106 9.33157L26.1106 6.66626L14.7433 12.3853C11.1135 14.2096 11.4838 19.5471 15.3301 20.8444L21.9213 23.0674C22.4021 23.2296 22.4484 23.8968 21.9947 24.1248L16.091 27.0942C14.7405 27.7734 13.8883 29.1559 13.8883 30.6676V33.3329L25.2556 27.6139C28.8854 25.7896 28.5152 20.4521 24.6688 19.1548L18.0776 16.9317Z" fill="#6004FF"/>
</svg>

<svg width="40" height="40" fill="none" xmlns="http://www.w3.org/2000/svg"><path fill-rule="evenodd" clip-rule="evenodd" d="M20 40c11.046 0 20-8.954 20-20S31.046 0 20 0 0 8.954 0 20s8.954 20 20 20Zm-1.922-23.068a.575.575 0 0 1-.074-1.058l5.904-2.969a4 4 0 0 0 2.203-3.573V6.666l-11.368 5.72c-3.63 1.824-3.26 7.161.587 8.458l6.591 2.223c.481.163.527.83.074 1.058l-5.904 2.97a4 4 0 0 0-2.203 3.573v2.665l11.368-5.72c3.63-1.823 3.26-7.16-.587-8.458l-6.591-2.223Z" fill="#6004FF"/></svg>
